Icons/rename_me_gplus_photos.svg

<svg viewBox="0 0 48 48"><defs><linearGradient id="linearGradient3764" x1="1" x2="47" gradientUnits="userSpaceOnUse" gradientTransform="translate(-48.000001,0.00221467)"><stop stop-color="#e4e4e4" stop-opacity="1"/><stop offset="1" stop-color="#eee" stop-opacity="1"/></linearGradient><clipPath id="clipPath-048330676"><g transform="translate(0,-1004.3622)"><rect rx="4" y="1005.36" x="1" height="46" width="46" fill="#1890d0"/></g></clipPath><clipPath id="clipPath-061099208"><g transform="translate(0,-1004.3622)"><rect rx="4" y="1005.36" x="1" height="46" width="46" fill="#1890d0"/></g></clipPath></defs><g><path d="m 1 43 l 0 0.25 c 0 2.216 1.784 4 4 4 l 38 0 c 2.216 0 4 -1.784 4 -4 l 0 -0.25 c 0 2.216 -1.784 4 -4 4 l -38 0 c -2.216 0 -4 -1.784 -4 -4 z m 0 0.5 l 0 0.5 c 0 2.216 1.784 4 4 4 l 38 0 c 2.216 0 4 -1.784 4 -4 l 0 -0.5 c 0 2.216 -1.784 4 -4 4 l -38 0 c -2.216 0 -4 -1.784 -4 -4 z" opacity="0.02"/><path d="m 1 43.25 l 0 0.25 c 0 2.216 1.784 4 4 4 l 38 0 c 2.216 0 4 -1.784 4 -4 l 0 -0.25 c 0 2.216 -1.784 4 -4 4 l -38 0 c -2.216 0 -4 -1.784 -4 -4 z" opacity="0.05"/><path d="m 1 43 l 0 0.25 c 0 2.216 1.784 4 4 4 l 38 0 c 2.216 0 4 -1.784 4 -4 l 0 -0.25 c 0 2.216 -1.784 4 -4 4 l -38 0 c -2.216 0 -4 -1.784 -4 -4 z" opacity="0.1"/></g><g><rect width="46" height="46" x="-47" y="1" rx="4" transform="matrix(0,-1,1,0,0,0)" fill="url(#linearGradient3764)" fill-opacity="1"/></g><g><g clip-path="url(#clipPath-048330676)"><g opacity="0.1"><!-- color: #eeeeee --><g><path d="M 9 24 L 17 16 L 22.75 22.75 L 19.625 24 Z M 9 24 " fill="#000"/><path d="m 17 16 l 5.75 6.75 l 1.25 -3.125 l 0 -3.625 m -7 0" fill="#000"/><path d="M 24 9 L 32 17 L 25.25 22.75 L 24 19.625 Z M 24 9 " fill="#000"/><path d="m 32 17 l -6.75 5.75 l 3.125 1.25 l 3.625 0 m 0 -7" fill="#000"/><path d="M 39 24 L 31 32 L 25.25 25.25 L 28.375 24 Z M 39 24 " fill="#000"/><path d="m 31 32 l -5.75 -6.75 l -1.25 3.125 l 0 3.625 m 7 0" fill="#000"/><path d="m 24 39 l -8 -8 l 6.75 -5.75 l 1.25 3.125 m 0 10.625" fill="#000"/><path d="m 16 31 l 6.75 -5.75 l -3.125 -1.25 l -3.625 0 m 0 7" fill="#000"/></g></g></g></g><g><g clip-path="url(#clipPath-061099208)"><g transform="translate(0,-1)"><!-- color: #eeeeee --><g><path d="M 9 24 L 17 16 L 22.75 22.75 L 19.625 24 Z M 9 24 " fill="#ffc63f"/><path d="m 17 16 l 5.75 6.75 l 1.25 -3.125 l 0 -3.625 m -7 0" fill="#f29e4c"/><path d="M 24 9 L 32 17 L 25.25 22.75 L 24 19.625 Z M 24 9 " fill="#e36a5b"/><path d="m 32 17 l -6.75 5.75 l 3.125 1.25 l 3.625 0 m 0 -7" fill="#9e62b2"/><path d="M 39 24 L 31 32 L 25.25 25.25 L 28.375 24 Z M 39 24 " fill="#85a2d6"/><path d="m 31 32 l -5.75 -6.75 l -1.25 3.125 l 0 3.625 m 7 0" fill="#5a5ba2"/><path d="m 24 39 l -8 -8 l 6.75 -5.75 l 1.25 3.125 m 0 10.625" fill="#80b869"/><path d="m 16 31 l 6.75 -5.75 l -3.125 -1.25 l -3.625 0 m 0 7" fill="#2f8e6f"/></g></g></g></g><g><g transform="translate(0,-1004.3622)"><path d="m 1 1043.36 0 4 c 0 2.216 1.784 4 4 4 l 38 0 c 2.216 0 4 -1.784 4 -4 l 0 -4 c 0 2.216 -1.784 4 -4 4 l -38 0 c -2.216 0 -4 -1.784 -4 -4 z" opacity="0.1"/></g></g></svg>

<svg viewBox="0 0 48 48" xmlns:xlink="http://www.w3.org/1999/xlink">
 <defs>
  <linearGradient id="0">
   <stop stop-opacity="0"/>
   <stop offset="1"/>
  </linearGradient>
  <linearGradient xlink:href="#0" id="1" gradientUnits="userSpaceOnUse" gradientTransform="translate(4e-7,-48)" y1="47" x2="0" y2="1"/>
  <clipPath id="2">
   <g transform="translate(0,-1004.3622)">
    <rect rx="4" y="1005.36" x="1" height="46" width="46" fill="#1890d0"/>
   </g>
  </clipPath>
  <clipPath id="3">
   <g transform="translate(0,-1004.3622)">
    <rect rx="4" y="1005.36" x="1" height="46" width="46" fill="#1890d0"/>
   </g>
  </clipPath>
 </defs>
 <g>
  <g transform="translate(0,-1004.3622)">
   <path d="m 5,1006.3622 c -2.216,0 -4,1.784 -4,4 l 0,37.25 c 0,2.216 1.784,4 4,4 l 38,0 c 2.216,0 4,-1.784 4,-4 l 0,-37.25 c 0,-2.216 -1.784,-4 -4,-4 l -38,0 z m -4,41.5 0,0.5 c 0,2.216 1.784,4 4,4 l 38,0 c 2.216,0 4,-1.784 4,-4 l 0,-0.5 c 0,2.216 -1.784,4 -4,4 l -38,0 c -2.216,0 -4,-1.784 -4,-4 z" opacity="0.02"/>
   <path d="m 1,1047.6122 0,0.25 c 0,2.216 1.784,4 4,4 l 38,0 c 2.216,0 4,-1.784 4,-4 l 0,-0.25 c 0,2.216 -1.784,4 -4,4 l -38,0 c -2.216,0 -4,-1.784 -4,-4 z" opacity="0.05"/>
   <rect width="46" height="46" x="1" y="1005.61" rx="4" opacity="0.1"/>
  </g>
 </g>
 <g>
  <g transform="translate(0,-1004.3622)">
   <rect rx="4" y="1005.36" x="1" height="46" width="46" fill="#eeeeee"/>
  </g>
 </g>
 <g>
  <rect transform="scale(1,-1)" width="46" height="46" x="1" y="-46.998" rx="4" opacity="0.1" fill="url(#1)"/>
 </g>
 <g>
  <g clip-path="url(#2)">
   <g opacity="0.1">
    <g>
     <path d="M 9 24 L 17 16 L 22.75 22.75 L 19.625 24 Z M 9 24 "/>
     <path d="M 17 16 L 22.75 22.75 L 24 19.625 L 24 16 Z M 17 16 "/>
     <path d="M 24 9 L 32 17 L 25.25 22.75 L 24 19.625 Z M 24 9 "/>
     <path d="M 32 17 L 25.25 22.75 L 28.375 24 L 32 24 Z M 32 17 "/>
     <path d="M 39 24 L 31 32 L 25.25 25.25 L 28.375 24 Z M 39 24 "/>
     <path d="M 31 32 L 25.25 25.25 L 24 28.375 L 24 32 Z M 31 32 "/>
     <path d="M 24 39 L 16 31 L 22.75 25.25 L 24 28.375 Z M 24 39 "/>
     <path d="M 16 31 L 22.75 25.25 L 19.625 24 L 16 24 Z M 16 31 "/>
    </g>
   </g>
  </g>
 </g>
 <g>
  <g clip-path="url(#3)">
   <g transform="translate(0,-1)">
    <g>
     <path d="M 9 24 L 17 16 L 22.75 22.75 L 19.625 24 Z M 9 24 " fill="#ffc63f"/>
     <path d="M 17 16 L 22.75 22.75 L 24 19.625 L 24 16 Z M 17 16 " fill="#f29e4c"/>
     <path d="M 24 9 L 32 17 L 25.25 22.75 L 24 19.625 Z M 24 9 " fill="#e36a5b"/>
     <path d="M 32 17 L 25.25 22.75 L 28.375 24 L 32 24 Z M 32 17 " fill="#9e62b2"/>
     <path d="M 39 24 L 31 32 L 25.25 25.25 L 28.375 24 Z M 39 24 " fill="#85a2d6"/>
     <path d="M 31 32 L 25.25 25.25 L 24 28.375 L 24 32 Z M 31 32 " fill="#5a5ba2"/>
     <path d="M 24 39 L 16 31 L 22.75 25.25 L 24 28.375 Z M 24 39 " fill="#80b869"/>
     <path d="M 16 31 L 22.75 25.25 L 19.625 24 L 16 24 Z M 16 31 " fill="#2f8e6f"/>
    </g>
   </g>
  </g>
 </g>
 <g>
  <g transform="translate(0,-1004.3622)">
   <path d="m 1,1043.3622 0,4 c 0,2.216 1.784,4 4,4 l 38,0 c 2.216,0 4,-1.784 4,-4 l 0,-4 c 0,2.216 -1.784,4 -4,4 l -38,0 c -2.216,0 -4,-1.784 -4,-4 z" opacity="0.1"/>
  </g>
 </g>
</svg>
